packages/tokens/icons/shopping/size32Px.svg

<svg viewBox="0 0 32 32" fill="none" xmlns="http://www.w3.org/2000/svg" width="1em" height="1em"><path d="M7.90468 8.89796C7.95834 8.11097 8.61239 7.5 9.40121 7.5L22.5988 7.5C23.3876 7.5 24.0417 8.11097 24.0953 8.89796L25.3908 27.898C25.4499 28.7645 24.7628 29.5 23.8942 29.5L8.10576 29.5C7.23716 29.5 6.55014 28.7645 6.60923 27.898L7.90468 8.89796Z" stroke="currentColor"/><path d="M20.5 10V9C20.5 5.13401 19.5 2.5 16 2.5C12.5 2.5 11.5 5.13401 11.5 9V10" stroke="currentColor"/><circle cx="11.5" cy="11" r="1" stroke="currentColor"/><circle cx="20.5" cy="11" r="1" stroke="currentColor"/></svg>

<svg xmlns="http://www.w3.org/2000/svg" fill="none" viewBox="0 0 32 32" width="1em" height="1em"><path stroke="currentColor" d="M7.905 8.898A1.5 1.5 0 0 1 9.4 7.5h13.2a1.5 1.5 0 0 1 1.496 1.398l1.296 19a1.5 1.5 0 0 1-1.497 1.602H8.106a1.5 1.5 0 0 1-1.497-1.602l1.296-19Z"/><path stroke="currentColor" d="M20.5 10V9c0-3.866-1-6.5-4.5-6.5S11.5 5.134 11.5 9v1"/><circle cx="11.5" cy="11" r="1" stroke="currentColor"/><circle cx="20.5" cy="11" r="1" stroke="currentColor"/></svg>
